X:138
T: Des Grafen Toechterlein
N: Q0063
O: Mitteleuropa, Deutschland
N: Taktart in "FREI" geaendert.
R: Ballade, Liebe, Standesunterschied, Strafe, Gnade
M: none
L: 1/8
K: F
F2 | F4E2D4C2 | F4G2F4
F2 | G4FGB4B2 | A4GFG4
G2 | G4FGG4FG | A4G4 | F4
A2 | G4FGE4DC | F4GAG4
A2- | A2G2F2DCDEF2G2 | G4F4

@@@ Tune index: 1014
